dist/svgs/crypto-icons/icons/trst.svg

<?xml version="1.0" encoding="UTF-8" standalone="yes"?>
<svg xmlns="http://www.w3.org/2000/svg" xmlns:xlink="http://www.w3.org/1999/xlink" width="512px" height="512px" viewBox="0 0 384 384" version="1.1">
  <g id="surface1">
    <path style=" stroke:none;fill-rule:evenodd;fill:rgb(0%,0%,0%);fill-opacity:1;" d="M 103.199219 178.398438 L 165.199219 178.398438 L 165.199219 298.800781 L 218.800781 298.800781 L 218.800781 178.398438 L 280.800781 178.398438 L 280.800781 125.601562 L 103.199219 125.601562 Z M 192 0 C 165.332031 0 140.398438 5.066406 117.199219 15.199219 C 93.734375 25.066406 73.332031 38.667969 56 56 C 38.667969 73.332031 25.066406 93.734375 15.199219 117.199219 C 5.066406 140.398438 0 165.332031 0 192 C 0 218.667969 5.066406 243.601562 15.199219 266.800781 C 25.066406 290 38.667969 310.332031 56 327.800781 C 73.332031 345.265625 93.734375 358.933594 117.199219 368.800781 C 140.398438 378.933594 165.332031 384 192 384 C 218.667969 384 243.601562 378.933594 266.800781 368.800781 C 290 358.933594 310.332031 345.332031 327.800781 328 C 345.265625 310.667969 358.933594 290.265625 368.800781 266.800781 C 378.933594 243.601562 384 218.667969 384 192 C 384 165.332031 378.933594 140.398438 368.800781 117.199219 C 358.933594 94 345.332031 73.667969 328 56.199219 C 310.667969 38.734375 290.265625 25.066406 266.800781 15.199219 C 243.601562 5.066406 218.667969 0 192 0 Z M 324 247.601562 C 320.265625 256.398438 315.867188 264.601562 310.800781 272.199219 C 305.734375 279.800781 299.867188 286.800781 293.199219 293.199219 C 286.53125 299.867188 279.46875 305.734375 272 310.800781 C 264.53125 315.867188 256.398438 320.265625 247.601562 324 C 238.84375 327.71875 229.730469 330.535156 220.398438 332.398438 C 211.066406 334.265625 201.601562 335.199219 192 335.199219 C 182.398438 335.199219 172.933594 334.265625 163.601562 332.398438 C 154.269531 330.535156 145.15625 327.71875 136.398438 324 C 127.601562 320.265625 119.398438 315.867188 111.800781 310.800781 C 104.199219 305.734375 97.199219 299.867188 90.800781 293.199219 C 84.132812 286.53125 78.265625 279.46875 73.199219 272 C 68.132812 264.53125 63.734375 256.398438 60 247.601562 C 56.265625 238.800781 53.53125 229.734375 51.800781 220.398438 C 50.066406 211.066406 49.199219 201.601562 49.199219 192 C 49.199219 182.398438 50.199219 172.933594 52.199219 163.601562 C 54.199219 154.265625 57.066406 145.199219 60.800781 136.398438 C 64.265625 127.601562 68.601562 119.398438 73.800781 111.800781 C 79 104.199219 84.933594 97.199219 91.601562 90.800781 C 98.265625 84.132812 105.332031 78.265625 112.800781 73.199219 C 120.265625 68.132812 128.265625 63.734375 136.800781 60 C 145.867188 56.265625 155.066406 53.46875 164.398438 51.601562 C 173.734375 49.734375 183.199219 48.800781 192.800781 48.800781 C 202.398438 48.800781 211.800781 49.734375 221 51.601562 C 230.199219 53.46875 239.332031 56.265625 248.398438 60 C 256.933594 63.734375 265 68.132812 272.601562 73.199219 C 280.199219 78.265625 287.199219 84.132812 293.601562 90.800781 C 300.53125 97.46875 306.53125 104.53125 311.601562 112 C 316.667969 119.46875 320.933594 127.601562 324.398438 136.398438 C 328.398438 145.199219 331.332031 154.265625 333.199219 163.601562 C 335.066406 172.933594 336 182.398438 336 192 C 336 201.601562 334.933594 211.066406 332.800781 220.398438 C 330.675781 229.707031 327.730469 238.8125 324 247.601562 Z M 324 247.601562 "/>
  </g>
</svg>

<svg xmlns="http://www.w3.org/2000/svg" viewBox="0 0 384 384"><path fill-rule="evenodd" d="M103.2 178.398h62v120.403h53.6V178.398h62v-52.796H103.2zM192 0c-26.668 0-51.602 5.066-74.8 15.2C93.733 25.065 73.331 38.667 56 56c-17.332 17.332-30.934 37.734-40.8 61.2C5.065 140.397 0 165.331 0 192s5.066 51.602 15.2 74.8c9.866 23.2 23.468 43.532 40.8 61 17.332 17.466 37.734 31.134 61.2 41 23.198 10.134 48.132 15.2 74.8 15.2s51.602-5.066 74.8-15.2c23.2-9.866 43.532-23.468 61-40.8 17.466-17.332 31.134-37.734 41-61.2 10.134-23.198 15.2-48.132 15.2-74.8s-5.066-51.602-15.2-74.8c-9.866-23.2-23.468-43.532-40.8-61-17.332-17.466-37.734-31.134-61.2-41C243.603 5.065 218.669 0 192 0zm132 247.602c-3.734 8.796-8.133 17-13.2 24.597a125.492 125.492 0 01-17.6 21c-6.669 6.668-13.731 12.535-21.2 17.602-7.469 5.066-15.602 9.465-24.398 13.199a139.469 139.469 0 01-27.204 8.398A144.38 144.38 0 01192 335.2a144.38 144.38 0 01-28.398-2.8 139.469 139.469 0 01-27.204-8.4c-8.796-3.734-17-8.133-24.597-13.2a125.492 125.492 0 01-21-17.6c-6.668-6.669-12.535-13.731-17.602-21.2-5.066-7.469-9.465-15.602-13.199-24.398a130.185 130.185 0 01-8.2-27.204A155.077 155.077 0 0149.2 192c0-9.602 1-19.066 3-28.398a149.87 149.87 0 018.6-27.204c3.466-8.796 7.802-17 13-24.597a133.431 133.431 0 0117.802-21c6.664-6.668 13.73-12.535 21.199-17.602 7.465-5.066 15.465-9.465 24-13.199 9.066-3.734 18.265-6.531 27.597-8.398a144.45 144.45 0 0128.403-2.801c9.597 0 19 .933 28.199 2.8 9.2 1.868 18.332 4.665 27.398 8.399a156.938 156.938 0 0124.204 13.2 125.806 125.806 0 0121 17.6c6.93 6.669 12.93 13.731 18 21.2 5.066 7.469 9.332 15.602 12.796 24.398 4 8.801 6.934 17.868 8.801 27.204A144.38 144.38 0 01336 192c0 9.602-1.066 19.066-3.2 28.398a161.797 161.797 0 01-8.8 27.204zm0 0"/></svg>
